src/cmd/32/graphicfilterrelief.svg

<svg viewBox="0 0 32 32" xmlns="http://www.w3.org/2000/svg"><path d="m4 4v24h13v-2h-11v-20h20v19h2v-21zm6 6v12h12v-12zm1 1h10v10h-10z" fill="#b3b3b3"/><path d="m19 26a1 1 0 0 0 -1 1 1 1 0 0 0 1 1 1 1 0 0 0 1-1 1 1 0 0 0 -1-1zm4 0a1 .9999913 0 0 0 -1 1 1 .9999913 0 0 0 1 1 1 .9999913 0 0 0 1-1 1 .9999913 0 0 0 -1-1zm4 0a1 1 0 0 0 -1 1 1 1 0 0 0 1 1 1 1 0 0 0 1-1 1 1 0 0 0 -1-1z" fill="#e95420"/><path d="m5 5v22h12v-1h-11v-20h20v19h1v-20zm6 6v10h10v-10zm1 1h8v8h-8z" fill="#232629"/></svg>

<?xml version="1.0" encoding="UTF-8" standalone="no"?>
<svg
   xmlns:dc="http://purl.org/dc/elements/1.1/"
   xmlns:cc="http://creativecommons.org/ns#"
   xmlns:rdf="http://www.w3.org/1999/02/22-rdf-syntax-ns#"
   xmlns:svg="http://www.w3.org/2000/svg"
   xmlns="http://www.w3.org/2000/svg"
   xmlns:sodipodi="http://sodipodi.sourceforge.net/DTD/sodipodi-0.dtd"
   xmlns:inkscape="http://www.inkscape.org/namespaces/inkscape"
   viewBox="0 0 32 32"
   version="1.1"
   id="svg8"
   sodipodi:docname="graphicfilterrelief.svg"
   inkscape:version="0.92.4 (5da689c313, 2019-01-14)">
  <metadata
     id="metadata14">
    <rdf:RDF>
      <cc:Work
         rdf:about="">
        <dc:format>image/svg+xml</dc:format>
        <dc:type
           rdf:resource="http://purl.org/dc/dcmitype/StillImage" />
      </cc:Work>
    </rdf:RDF>
  </metadata>
  <defs
     id="defs12" />
  <sodipodi:namedview
     pagecolor="#ffffff"
     bordercolor="#666666"
     borderopacity="1"
     objecttolerance="10"
     gridtolerance="10"
     guidetolerance="10"
     inkscape:pageopacity="0"
     inkscape:pageshadow="2"
     inkscape:window-width="1920"
     inkscape:window-height="1011"
     id="namedview10"
     showgrid="true"
     inkscape:zoom="29.5"
     inkscape:cx="14.261049"
     inkscape:cy="11.398469"
     inkscape:window-x="0"
     inkscape:window-y="32"
     inkscape:window-maximized="1"
     inkscape:current-layer="svg8">
    <inkscape:grid
       type="xygrid"
       id="grid821" />
  </sodipodi:namedview>
  <path
     d="M 28,25 V 4 H 4 V 28 H 17 28 Z M 17,26 H 6 V 6 h 20 v 19 1 z M 10,10 V 22 H 22 V 10 Z m 1,1 H 21 V 21 H 11 Z"
     id="path2"
     inkscape:connector-curvature="0"
     style="fill:#b3b3b3"
     sodipodi:nodetypes="cccccccccccccccccccccccc" />
  <path
     d="M 17,26 H 6 V 6 h 20 v 19 1 z M 27,25 V 5 H 5 V 27 H 17 27 Z M 11,11 V 21 H 21 V 11 Z m 1,1 h 8 v 8 h -8 z"
     id="path6"
     inkscape:connector-curvature="0"
     style="fill:#232629"
     sodipodi:nodetypes="cccccccccccccccccccccccc" />
</svg>
